apps/scalable/telegram.svg

<svg xmlns="http://www.w3.org/2000/svg" style="isolation:isolate" width="256" height="256"><defs><filter id="a" width="270.648" height="254.338" x="-7.32" y="2.95" filterUnits="userSpaceOnUse"><feGaussianBlur xmlns="http://www.w3.org/2000/svg" in="SourceGraphic" stdDeviation="4.294"/><feOffset xmlns="http://www.w3.org/2000/svg" dy="4" result="pf_100_offsetBlur"/><feFlood xmlns="http://www.w3.org/2000/svg" flood-opacity=".4"/><feComposite xmlns="http://www.w3.org/2000/svg" in2="pf_100_offsetBlur" operator="in" result="pf_100_dropShadow"/><feBlend xmlns="http://www.w3.org/2000/svg" in="SourceGraphic" in2="pf_100_dropShadow"/></filter></defs><path fill="#37A6E6" d="M165.685 11.947c74.055 0 84.639 10.557 84.639 84.544v59.251c0 73.986-10.584 84.543-84.639 84.543h-75.37c-74.055 0-84.639-10.557-84.639-84.543V96.491c0-73.987 10.584-84.544 84.639-84.544h75.37z" filter="url(#a)"/><g opacity=".4"><linearGradient id="b" x1=".517" x2=".517" y2="1"><stop offset="0%" stop-color="#fff"/><stop offset="12.5%" stop-opacity=".098" stop-color="#fff"/><stop offset="92.5%" stop-opacity=".098"/><stop offset="100%" stop-opacity=".498"/></linearGradient><path fill="none" stroke="url(#b)" stroke-linecap="round" stroke-linejoin="round" stroke-width="4.077" d="M165.685 11.947c74.055 0 84.639 10.557 84.639 84.544v59.251c0 73.986-10.584 84.543-84.639 84.543h-75.37c-74.055 0-84.639-10.557-84.639-84.543V96.491c0-73.987 10.584-84.544 84.639-84.544h75.37z" vector-effect="non-scaling-stroke"/></g><path fill="#FFF" d="M249.643 83.58L44.234 236.61c11.562 2.311 26.426 3.019 45.523 3.019h75.37c74.055 0 84.639-10.558 84.639-84.544V95.834c0-4.303-.041-8.37-.123-12.254z" opacity=".1"/><path fill="#C8DAEA" d="M101.657 186.599c-4.171 0-3.462-1.575-4.9-5.546l-12.266-40.366 94.412-56.009"/><path fill="#A9C9DD" d="M101.657 186.599c3.219 0 4.641-1.472 6.437-3.219l17.166-16.691-21.412-12.912"/><linearGradient id="c" x1=".66" x2=".851" y1=".437" y2=".743" gradientTransform="matrix(140 0 0 117.424 49 76.288)" gradientUnits="userSpaceOnUse"><stop offset="0%" stop-color="#eff7fc"/><stop offset="100%" stop-color="#fff"/></linearGradient><path fill="url(#c)" d="M103.846 153.78l51.883 38.332c5.921 3.267 10.194 1.576 11.668-5.496l21.12-99.522c2.162-8.669-3.305-12.6-8.969-10.029L55.537 124.883c-8.465 3.396-8.416 8.118-1.543 10.222l31.824 9.933 73.676-46.481c3.478-2.109 6.67-.975 4.05 1.35"/></svg>

<svg xmlns="http://www.w3.org/2000/svg" style="isolation:isolate" width="256" height="256" viewBox="0 0 256 256">
 <defs>
  <filter id="EOIfft66F0GV4SvscLQzH1lRah9jhnwW" width="270.648" height="254.338" x="-7.32" y="2.95" filterUnits="userSpaceOnUse">
   <feGaussianBlur xmlns="http://www.w3.org/2000/svg" in="SourceGraphic" stdDeviation="4.294"/>
   <feOffset xmlns="http://www.w3.org/2000/svg" dx="0" dy="4" result="pf_100_offsetBlur"/>
   <feFlood xmlns="http://www.w3.org/2000/svg" flood-opacity=".4"/>
   <feComposite xmlns="http://www.w3.org/2000/svg" in2="pf_100_offsetBlur" operator="in" result="pf_100_dropShadow"/>
   <feBlend xmlns="http://www.w3.org/2000/svg" in="SourceGraphic" in2="pf_100_dropShadow" mode="normal"/>
  </filter>
 </defs>
 <g filter="url(#EOIfft66F0GV4SvscLQzH1lRah9jhnwW)">
  <path fill="#37A6E6" d="M 165.685 11.947 C 239.74 11.947 250.324 22.504 250.324 96.491 L 250.324 155.742 C 250.324 229.728 239.74 240.285 165.685 240.285 L 90.315 240.285 C 16.26 240.285 5.676 229.728 5.676 155.742 L 5.676 96.491 C 5.676 22.504 16.26 11.947 90.315 11.947 L 165.685 11.947 Z"/>
 </g>
 <g opacity=".4">
  <linearGradient id="_lgradient_63" x1=".517" x2=".517" y1="0" y2="1">
   <stop offset="0%" style="stop-color:rgb(255,255,255)"/>
   <stop offset="12.5%" stop-opacity=".098" style="stop-color:rgb(255,255,255)"/>
   <stop offset="92.5%" stop-opacity=".098" style="stop-color:rgb(0,0,0)"/>
   <stop offset="100%" stop-opacity=".498" style="stop-color:rgb(0,0,0)"/>
  </linearGradient>
  <path fill="none" stroke="url(#_lgradient_63)" stroke-linecap="round" stroke-linejoin="round" stroke-width="4.077" d="M 165.685 11.947 C 239.74 11.947 250.324 22.504 250.324 96.491 L 250.324 155.742 C 250.324 229.728 239.74 240.285 165.685 240.285 L 90.315 240.285 C 16.26 240.285 5.676 229.728 5.676 155.742 L 5.676 96.491 C 5.676 22.504 16.26 11.947 90.315 11.947 L 165.685 11.947 Z" vector-effect="non-scaling-stroke"/>
 </g>
 <g opacity=".1">
  <path fill="#FFFFFF" d="M 249.643 83.58 L 44.234 236.61 C 55.796 238.921 70.66 239.629 89.757 239.629 L 165.127 239.629 C 239.182 239.629 249.766 229.071 249.766 155.085 L 249.766 95.834 C 249.766 91.531 249.725 87.464 249.643 83.58 L 249.643 83.58 Z"/>
 </g>
 <g>
  <path fill="#C8DAEA" d="M 101.657 186.599 C 97.486 186.599 98.195 185.024 96.757 181.053 L 84.491 140.687 L 178.903 84.678"/>
  <path fill="#A9C9DD" d="M 101.657 186.599 C 104.876 186.599 106.298 185.127 108.094 183.38 L 125.26 166.689 L 103.848 153.777"/>
  <linearGradient id="_lgradient_64" x1=".66" x2=".851" y1=".437" y2=".743" gradientTransform="matrix(140,0,0,117.424,49,76.288)" gradientUnits="userSpaceOnUse">
   <stop offset="0%" style="stop-color:rgb(239,247,252)"/>
   <stop offset="100%" style="stop-color:rgb(255,255,255)"/>
  </linearGradient>
  <path fill="url(#_lgradient_64)" d="M 103.846 153.78 L 155.729 192.112 C 161.65 195.379 165.923 193.688 167.397 186.616 L 188.517 87.094 C 190.679 78.425 185.212 74.494 179.548 77.065 L 55.537 124.883 C 47.072 128.279 47.121 133.001 53.994 135.105 L 85.818 145.038 L 159.494 98.557 C 162.972 96.448 166.164 97.582 163.544 99.907"/>
 </g>
</svg>
